X: 36741
T: Sheffield Park
R: three-two
M: 3/2
K: Fdorian
[M:3/4]B,2|E4 E2|E2 G2 B2|c2 B2 G2|B6-|B4 B2|B4 G2|
G2 B2 G2|G2 F2 E2|F6-|F4 B2|B4 B2|E2 G2 B2|
A2 G2 F2|E6-|E4 B2|B4 B2|c2 B2 A2|G2 A2 F2|E6-|E4||

